X: 32394
T: Piper's Apron, The
R: slip jig
M: 9/8
K: Dmajor
DF/G/A ded cde|DF/G/A d=cA GEA|DF/G/A dg/f/e dAB|=c2A AGF GEA|
DF/G/A df/g/d cde|DFA d=cA GEA|D3 dg/f/e dAB|=cde dcA GED||
d2e fdf g3|afd dB/^c/d ecA|d2f e^ce dAB|=c2A AGF GEA|
d2e fdf g3|afd dB/^c/d ecA|g/f/ed ece dAB|=cde dcA GEA||

